X: 1
T: Tom Kruskal's    [F]
N: for the dance Sapphire Sea
C: Emily Troll/Amelia Mason
R: march
S: Dance page at 36th Annual Playford Ball 2016-3-5 Framingham MA
Z: 2017 John Chambers <jc:trillian.mit.edu>
M: C|
L: 1/8
K: F
AG |\
"F"F2 cF | GF CF | "Bb"DF Fc | BA GF |\
"Dm"c2 BA | GF DF | "Bb"CF FE | "C"F2 AG |
"F"GF cF | GF CF | "Bb"DF Fc | BA GF |\
"Gm"B3 A | GF DF | "C"CF FE | "F"FG AB ||
"F"c2 BA | GF DC | "Bb"DB AB | AF GA |\
"Dm"DB AB | AF GA | "Bb"Ac cA | "C"G2 AB |
"F(Bb)"c2 BA | GF Ac | "Dm"dA AG | A2 GA |\
"Gm"B3 A | GF DF | "C"CF FE | "F"F2 |]

%%sep 1 1 500

